img/icon_mail.svg

<svg width="41" height="42" viewBox="0 0 41 42" fill="none" xmlns="http://www.w3.org/2000/svg">
<path fill-rule="evenodd" clip-rule="evenodd" d="M20.5 41.6127C9.17816 41.6127 0 32.4411 0 21.1274C0 9.81367 9.17816 0.64209 20.5 0.64209C31.8218 0.64209 41 9.81367 41 21.1274C41 32.4411 31.8218 41.6127 20.5 41.6127ZM20.7856 19.9777C22.4642 19.9777 30.6256 15.3915 30.6256 15.3915L30.6388 14.5721C30.6388 13.6675 29.904 12.9333 28.9963 12.9333H12.575C11.6681 12.9333 10.9333 13.6675 10.9333 14.5721V15.3022C10.9333 15.3022 19.1842 19.9777 20.7856 19.9777ZM10.9465 17.8497C10.9456 17.8497 19.1842 22.231 20.7856 22.231C22.5413 22.231 30.6256 17.8497 30.6256 17.8497L30.6388 27.6827C30.6388 28.5873 29.904 29.3215 28.9963 29.3215H12.575C11.6689 29.3215 10.9333 28.5873 10.9333 27.6827L10.9465 17.8497Z" fill="white"/>
</svg>

<svg width="41" height="42" fill="none" xmlns="http://www.w3.org/2000/svg"><path fill-rule="evenodd" clip-rule="evenodd" d="M20.5 41.613C9.178 41.613 0 32.44 0 21.127S9.178.642 20.5.642 41 9.814 41 21.127c0 11.314-9.178 20.486-20.5 20.486zm.286-21.635c1.678 0 9.84-4.587 9.84-4.587l.013-.819a1.64 1.64 0 00-1.643-1.639H12.575a1.64 1.64 0 00-1.642 1.64v.73s8.251 4.675 9.853 4.675zm-9.84-2.128s8.238 4.381 9.84 4.381c1.755 0 9.84-4.381 9.84-4.381l.013 9.833a1.64 1.64 0 01-1.643 1.639H12.575a1.64 1.64 0 01-1.642-1.64l.014-9.832z" fill="#fff"/></svg>
